public/images/project-logos/zadark.svg

<svg xmlns="http://www.w3.org/2000/svg" fill="none" viewBox="0 0 512 512"><path fill="#00002D" d="M458.634 53.496C410.33 5.378 340.875 0 256 0 171.018 0 101.458 5.44 53.174 53.688 4.897 101.916 0 171.364 0 256.249c0 84.899 4.897 154.368 53.194 202.613 48.281 48.255 117.833 53.139 202.806 53.139 84.974 0 154.514-4.884 202.795-53.139C507.089 410.608 512 341.148 512 256.249c0-84.994-4.964-154.517-53.366-202.753Z"/><g filter="url(#a)"><path fill="url(#b)" d="M88 255.484c.284-92.783 75.395-167.768 167.764-167.483 13.252.04 26.143 1.63 38.504 4.596a4.093 4.093 0 0 1 3.131 3.946 4.095 4.095 0 0 1-3.054 4.006c-55.142 14.381-95.927 64.639-96.11 124.543-.218 71.285 57.135 129.251 128.102 129.47 24.722.076 47.824-6.862 67.452-18.948a4.067 4.067 0 0 1 4.991.571 4.111 4.111 0 0 1 .655 5.003c-29.168 49.707-83.092 83.001-144.698 82.811-92.37-.285-167.02-75.732-166.736-168.515Z"/><path fill="url(#c)" d="M372.255 264.183c2.497-9.398 3.745-16.676 3.745-21.833 0-1.376-1.685-2.98-5.056-4.814-3.246-1.834-5.431-2.751-6.555-2.751-.998 0-1.498.115-1.498.344-1.123 2.98-3.433 6.934-6.928 11.862-3.496 4.929-6.243 8.195-8.24 9.8-3.246 1.834-10.113 2.751-20.599 2.751-10.362 0-15.543-.402-15.543-1.204 0-2.521 8.052-14.269 24.157-35.243 16.23-20.975 28.215-35.473 35.955-43.496.999-.917 1.498-1.547 1.498-1.891 0-3.439-.687-6.533-2.06-9.284-1.248-2.751-2.372-4.527-3.371-5.329-2.247-.688-10.362-1.032-24.344-1.032-13.858 0-26.405.745-37.641 2.235-.249 0-2.184-.688-5.805-2.063-3.62-1.49-7.178-2.235-10.674-2.235-.499 0-1.561 2.178-3.184 6.533-1.498 4.355-2.933 9.284-4.307 14.785-1.248 5.501-1.872 9.628-1.872 12.378 0 .917 1.56 2.235 4.681 3.954 3.246 1.72 5.743 2.579 7.491 2.579l2.434-3.782c4.994-8.023 8.365-12.321 10.113-12.894 3.745-1.719 10.237-2.579 19.475-2.579 9.364 0 14.045.344 14.045 1.032 0 1.26-4.619 7.622-13.857 19.083a17141.507 17141.507 0 0 0-29.588 36.447c-10.362 12.951-16.542 21.375-18.54 25.272-.125.458-.187 1.662-.187 3.61 0 1.949.687 4.528 2.06 7.737 1.498 3.209 2.871 4.813 4.12 4.813l58.614-1.547c4.12 0 6.679.058 7.678.172l2.809.688c5.868 1.146 10.175 1.719 12.921 1.719 1.374 0 2.247-.172 2.622-.516 1.124-.917 2.934-6.017 5.431-15.301Z"/></g><defs><linearGradient id="b" x1="244" x2="244" y1="88" y2="424" gradientUnits="userSpaceOnUse"><stop stop-color="#3989FF"/><stop offset="1" stop-color="#0068FF"/></linearGradient><linearGradient id="c" x1="244" x2="244" y1="88" y2="424" gradientUnits="userSpaceOnUse"><stop stop-color="#3989FF"/><stop offset="1" stop-color="#0068FF"/></linearGradient><filter id="a" width="328" height="352" x="80" y="88" color-interpolation-filters="sRGB" filterUnits="userSpaceOnUse"><feFlood flood-opacity="0" result="BackgroundImageFix"/><feColorMatrix in="SourceAlpha" result="hardAlpha" values="0 0 0 0 0 0 0 0 0 0 0 0 0 0 0 0 0 0 127 0"/><feOffset dy="8"/><feGaussianBlur stdDeviation="4"/><feComposite in2="hardAlpha" operator="out"/><feColorMatrix values="0 0 0 0 0 0 0 0 0 0 0 0 0 0 0 0 0 0 1 0"/><feBlend in2="BackgroundImageFix" result="effect1_dropShadow_1020_1339"/><feBlend in="SourceGraphic" in2="effect1_dropShadow_1020_1339" result="shape"/></filter></defs></svg>

<svg width="512" height="512" viewBox="0 0 512 512" fill="none" xmlns="http://www.w3.org/2000/svg">
<path d="M458.634 53.496C410.33 5.378 340.875 0 256 0C171.018 0 101.458 5.44 53.174 53.688C4.897 101.916 0 171.364 0 256.249C0 341.148 4.897 410.617 53.194 458.862C101.475 507.117 171.027 512.001 256 512.001C340.974 512.001 410.514 507.117 458.795 458.862C507.089 410.608 512 341.148 512 256.249C512 171.255 507.036 101.732 458.634 53.496Z" fill="#00002D"/>
<g filter="url(#filter0_d_1020_1339)">
<path d="M88.0008 255.484C88.2845 162.701 163.395 87.7158 255.764 88.0008C269.016 88.0417 281.907 89.6303 294.268 92.5974C296.09 93.0347 297.381 94.6617 297.399 96.5429C297.417 98.4241 296.158 100.076 294.345 100.549C239.203 114.93 198.418 165.188 198.235 225.092C198.017 296.377 255.37 354.343 326.337 354.562C351.059 354.638 374.161 347.7 393.789 335.614C395.386 334.631 397.444 334.867 398.78 336.185C400.116 337.504 400.386 339.568 399.435 341.188C370.267 390.895 316.343 424.189 254.737 423.999C162.367 423.714 87.7171 348.267 88.0008 255.484Z" fill="url(#paint0_linear_1020_1339)"/>
<path d="M372.255 264.183C374.752 254.785 376 247.507 376 242.35C376 240.974 374.315 239.37 370.944 237.536C367.698 235.702 365.513 234.785 364.389 234.785C363.391 234.785 362.891 234.9 362.891 235.129C361.768 238.109 359.458 242.063 355.963 246.991C352.467 251.92 349.72 255.186 347.723 256.791C344.477 258.625 337.61 259.542 327.124 259.542C316.762 259.542 311.581 259.14 311.581 258.338C311.581 255.817 319.633 244.069 335.738 223.095C351.968 202.12 363.953 187.622 371.693 179.599C372.692 178.682 373.191 178.052 373.191 177.708C373.191 174.269 372.504 171.175 371.131 168.424C369.883 165.673 368.759 163.897 367.76 163.095C365.513 162.407 357.398 162.063 343.416 162.063C329.558 162.063 317.011 162.808 305.775 164.298C305.526 164.298 303.591 163.61 299.97 162.235C296.35 160.745 292.792 160 289.296 160C288.797 160 287.735 162.178 286.112 166.533C284.614 170.888 283.179 175.817 281.805 181.318C280.557 186.819 279.933 190.946 279.933 193.696C279.933 194.613 281.493 195.931 284.614 197.65C287.86 199.37 290.357 200.229 292.105 200.229L294.539 196.447C299.533 188.424 302.904 184.126 304.652 183.553C308.397 181.834 314.889 180.974 324.127 180.974C333.491 180.974 338.172 181.318 338.172 182.006C338.172 183.266 333.553 189.628 324.315 201.089C315.076 212.436 305.213 224.585 294.727 237.536C284.365 250.487 278.185 258.911 276.187 262.808C276.062 263.266 276 264.47 276 266.418C276 268.367 276.687 270.946 278.06 274.155C279.558 277.364 280.931 278.968 282.18 278.968L340.794 277.421C344.914 277.421 347.473 277.479 348.472 277.593L351.281 278.281C357.149 279.427 361.456 280 364.202 280C365.576 280 366.449 279.828 366.824 279.484C367.948 278.567 369.758 273.467 372.255 264.183Z" fill="url(#paint1_linear_1020_1339)"/>
</g>
<defs>
<filter id="filter0_d_1020_1339" x="80" y="88" width="328" height="352" filterUnits="userSpaceOnUse" color-interpolation-filters="sRGB">
<feFlood flood-opacity="0" result="BackgroundImageFix"/>
<feColorMatrix in="SourceAlpha" type="matrix" values="0 0 0 0 0 0 0 0 0 0 0 0 0 0 0 0 0 0 127 0" result="hardAlpha"/>
<feOffset dy="8"/>
<feGaussianBlur stdDeviation="4"/>
<feComposite in2="hardAlpha" operator="out"/>
<feColorMatrix type="matrix" values="0 0 0 0 0 0 0 0 0 0 0 0 0 0 0 0 0 0 1 0"/>
<feBlend mode="normal" in2="BackgroundImageFix" result="effect1_dropShadow_1020_1339"/>
<feBlend mode="normal" in="SourceGraphic" in2="effect1_dropShadow_1020_1339" result="shape"/>
</filter>
<linearGradient id="paint0_linear_1020_1339" x1="244" y1="88" x2="244" y2="424" gradientUnits="userSpaceOnUse">
<stop stop-color="#3989FF"/>
<stop offset="1" stop-color="#0068FF"/>
</linearGradient>
<linearGradient id="paint1_linear_1020_1339" x1="244" y1="88" x2="244" y2="424" gradientUnits="userSpaceOnUse">
<stop stop-color="#3989FF"/>
<stop offset="1" stop-color="#0068FF"/>
</linearGradient>
</defs>
</svg>
